img/sprite_auto.svg

<svg xmlns="http://www.w3.org/2000/svg" xmlns:xlink="http://www.w3.org/1999/xlink"><defs>
<clipPath id="clip0">
<rect width="12" height="7.4" fill="white" transform="translate(9 18) rotate(-90)"/>
</clipPath>
</defs><symbol id="icon-arrow-down" viewBox="0 0 16 16">
<path d="M8 1V15" stroke="white" stroke-width="2" stroke-linecap="round" stroke-linejoin="round"/>
<path d="M15 8L8 15L1 8" stroke="white" stroke-width="2" stroke-linecap="round" stroke-linejoin="round"/>
</symbol><symbol id="icon-arrow-right" viewBox="0 0 25 25">
<g clip-path="url(#clip0)">
<path fill-rule="evenodd" clip-rule="evenodd" d="M9 7.4L13.6 12L9 16.6L10.4 18L16.4 12L10.4 6L9 7.4Z" fill="#2C2E3F" fill-opacity="0.5"/>
</g>

</symbol><symbol id="icon-check" viewBox="0 0 14 12">
<path fill-rule="evenodd" clip-rule="evenodd" d="M13.6138 0.210585C14.0498 0.549578 14.1285 1.17784 13.7895 1.61385L6.01453 11.6138C5.84138 11.8365 5.58223 11.9758 5.30094 11.9972C5.01966 12.0186 4.74242 11.9202 4.53757 11.7262L0.312502 7.72623C-0.0885582 7.34653 -0.105878 6.71361 0.273818 6.31255C0.653514 5.91149 1.28644 5.89417 1.6875 6.27386L5.11216 9.51608L12.2105 0.386246C12.5495 -0.0497617 13.1778 -0.128408 13.6138 0.210585Z" fill="#FE7865"/>
</symbol><symbol id="icon-close" viewBox="0 0 24 24">
<path d="M1 23L23 1M23 23L1 1" stroke="#141517" stroke-opacity="0.2" stroke-linecap="round" stroke-linejoin="round"/>
</symbol><symbol id="icon-input-req" viewBox="0 0 6 7">
<path d="M3.51881 6.02797L3.4338 4.15797L4.9978 5.16097L5.5418 4.24297L3.89281 3.39297L5.5418 2.54297L4.9978 1.60797L3.4338 2.61097L3.51881 0.740967H2.4478L2.5328 2.61097L0.951805 1.60797L0.424805 2.54297L2.0738 3.39297L0.424805 4.24297L0.951805 5.16097L2.5328 4.15797L2.4478 6.02797H3.51881Z" fill="#FE7865"/>
</symbol><symbol id="icon-logo" viewBox="0 0 58 22">
<path d="M27.7339 0L22.0582 17.0732H17.7457L13.9289 5.51219L9.98817 17.0732H5.70045L0 0H4.1638L8.07976 12L12.1692 0H15.8869L19.8524 12.0976L23.8923 0H27.7339Z" fill="#141517"/>
<path d="M34.0886 3.7561C36.154 3.7561 37.7402 4.2439 38.8473 5.21951C39.9543 6.17886 40.5078 7.63414 40.5078 9.58536V17.0732H36.8893V15.439C36.1623 16.6585 34.8074 17.2683 32.8246 17.2683C31.8002 17.2683 30.9079 17.0976 30.1479 16.7561C29.4043 16.4146 28.8343 15.9431 28.4378 15.3415C28.0412 14.7398 27.8429 14.0569 27.8429 13.2927C27.8429 12.0732 28.3056 11.1138 29.2309 10.4146C30.1727 9.71545 31.6184 9.36585 33.5681 9.36585H36.6414C36.6414 8.53658 36.3853 7.90244 35.8731 7.46342C35.3609 7.00813 34.5926 6.78049 33.5681 6.78049C32.8577 6.78049 32.1554 6.89431 31.4615 7.12195C30.784 7.33333 30.2057 7.62602 29.7265 8L28.3386 5.34146C29.0656 4.8374 29.9331 4.44715 30.941 4.17073C31.9654 3.89431 33.0146 3.7561 34.0886 3.7561ZM33.7912 14.7073C34.4521 14.7073 35.0387 14.561 35.5509 14.2683C36.0631 13.9593 36.4266 13.5122 36.6414 12.9268V11.5854H33.9895C32.4033 11.5854 31.6102 12.0976 31.6102 13.122C31.6102 13.6098 31.8002 14 32.1802 14.2927C32.5768 14.5691 33.1138 14.7073 33.7912 14.7073Z" fill="#141517"/>
<path d="M57 3.95122L50.9774 17.878C50.366 19.3902 49.6059 20.4553 48.6972 21.0732C47.8049 21.6911 46.7227 22 45.4504 22C44.7564 22 44.0707 21.8943 43.3933 21.6829C42.7158 21.4715 42.1623 21.1789 41.7327 20.8049L43.1454 18.0976C43.4429 18.3577 43.7816 18.561 44.1616 18.7073C44.5582 18.8537 44.9465 18.9268 45.3265 18.9268C45.8552 18.9268 46.2848 18.7967 46.6153 18.5366C46.9457 18.2927 47.2432 17.878 47.5075 17.2927L47.5571 17.1707L41.7823 3.95122H45.7726L49.5151 12.8537L53.2823 3.95122H57Z" fill="#141517"/>
<path d="M57.0173 3.9502L50.9946 17.877C50.3833 19.3892 49.6232 20.4543 48.7145 21.0721C47.8222 21.69 46.74 21.999 45.4677 21.999C44.7737 21.999 44.088 21.8933 43.4106 21.6819C42.7331 21.4705 42.1796 21.1778 41.75 20.8039L43.1627 18.0965C43.4601 18.3567 43.7989 18.5599 44.1789 18.7063C44.5754 18.8526 44.9637 18.9258 45.3438 18.9258C45.8725 18.9258 46.3021 18.7957 46.6326 18.5356C46.963 18.2917 47.2604 17.877 47.5248 17.2917L47.5744 17.1697L49.5323 12.8526L53.2996 3.9502H57.0173Z" fill="#FE7865"/>
</symbol><symbol id="icon-mail" viewBox="0 0 26 20">
<path d="M24.2273 0H1.77273C0.768182 0 0 0.764706 0 1.76471V18.2353C0 19.2353 0.768182 20 1.77273 20H24.2273C25.2318 20 26 19.2353 26 18.2353V1.76471C26 0.764706 25.2318 0 24.2273 0ZM24.2273 17L19.5591 12.3529C19.2045 12 18.6727 12 18.3182 12.3529C17.9636 12.7059 17.9636 13.2353 18.3182 13.5882L22.9864 18.2353H3.01362L7.68182 13.5882C8.03636 13.2353 8.03636 12.7059 7.68182 12.3529C7.32727 12 6.79547 12 6.44092 12.3529L1.77273 17V5.70585L12.4091 13.7059C12.5864 13.8236 12.7636 13.8823 12.9409 13.8823C13.1182 13.8823 13.2954 13.8236 13.4727 13.7059L24.2273 5.70585V17ZM24.2273 1.76471V3.4706L12.9409 11.8235L1.77273 3.4706V1.76471H24.2273Z" fill="#D7D9DF"/>
</symbol><symbol id="icon-phone" viewBox="0 0 30 30">
<path d="M7.39635 8.62432C7.31179 7.42623 7.57753 6.24606 8.28114 5.29684C8.89115 4.43632 9.68536 3.96636 10.6426 3.69172C11.4489 3.4525 11.9774 3.74561 12.2099 4.64204C12.5421 5.98224 13.0162 7.3225 13.1884 8.73361C13.2427 9.35485 12.8411 10.2332 12.4062 10.6856C11.3161 11.7589 11.5426 12.5399 12.37 14.1643C12.6267 14.6881 13.0344 15.5934 13.8286 16.7919C14.656 17.9992 15.0939 18.6472 16.1569 18.0975C17.3376 17.5035 18.1983 17.8855 19.0891 18.8444C19.6931 19.5369 20.3574 20.1318 20.9614 20.8243C21.8341 21.8542 21.7949 22.5641 21.1124 23.2915C19.8833 24.6309 17.854 25.0736 16.3441 24.1766C15.5106 23.6881 14.6802 23.0487 14.0188 22.303C11.1047 18.9825 9.00291 15.1212 7.73759 10.7632C7.53526 10.0265 7.44165 9.28104 7.39635 8.62432Z" stroke="#141517" stroke-width="2" stroke-miterlimit="10"/>
</symbol></svg>

<svg xmlns="http://www.w3.org/2000/svg" xmlns:xlink="http://www.w3.org/1999/xlink"><defs><clipPath id="clip0"><path fill="#fff" transform="rotate(-90 13.5 4.5)" d="M0 0h12v7.4H0z"/></clipPath></defs><symbol id="icon-arrow-down"><path d="M8 1v14m7-7l-7 7-7-7" stroke="#fff" stroke-width="2" stroke-linecap="round" stroke-linejoin="round"/></symbol><symbol id="icon-arrow-right"><g clip-path="url(#clip0)"><path fill-rule="evenodd" clip-rule="evenodd" d="M9 7.4l4.6 4.6L9 16.6l1.4 1.4 6-6-6-6L9 7.4z" fill="#2C2E3F" fill-opacity=".5"/></g></symbol><symbol id="icon-check"><path fill-rule="evenodd" clip-rule="evenodd" d="M13.614.21a1 1 0 01.175 1.404l-7.774 10a1 1 0 01-1.477.112l-4.225-4a1 1 0 111.375-1.452l3.424 3.242L12.21.386a1 1 0 011.404-.175z" fill="#FE7865"/></symbol><symbol id="icon-close"><path d="M1 23L23 1m0 22L1 1" stroke="#141517" stroke-opacity=".2" stroke-linecap="round" stroke-linejoin="round"/></symbol><symbol id="icon-input-req"><path d="M3.519 6.028l-.085-1.87 1.564 1.003.544-.918-1.65-.85 1.65-.85-.544-.935-1.564 1.003.085-1.87H2.448l.085 1.87L.952 1.608l-.527.935 1.649.85-1.65.85.528.918 1.58-1.003-.084 1.87h1.07z" fill="#FE7865"/></symbol><symbol id="icon-logo"><path d="M27.734 0l-5.676 17.073h-4.312l-3.817-11.56-3.94 11.56H5.7L0 0h4.164L8.08 12l4.09-12h3.717l3.965 12.098L23.892 0h3.842zm6.355 3.756c2.065 0 3.651.488 4.758 1.464 1.107.959 1.66 2.414 1.66 4.365v7.488H36.89V15.44c-.727 1.22-2.082 1.83-4.064 1.83-1.025 0-1.917-.171-2.677-.513-.744-.341-1.314-.813-1.71-1.415-.397-.601-.595-1.284-.595-2.048 0-1.22.463-2.18 1.388-2.878.942-.7 2.387-1.05 4.337-1.05h3.073c0-.828-.256-1.463-.768-1.902-.512-.455-1.28-.683-2.305-.683a6.72 6.72 0 00-2.106.342c-.678.211-1.256.504-1.735.878L28.34 5.342c.727-.504 1.594-.894 2.602-1.17a12.029 12.029 0 013.148-.415zm-.298 10.951c.661 0 1.248-.146 1.76-.439a2.535 2.535 0 001.09-1.341v-1.342H33.99c-1.587 0-2.38.513-2.38 1.537 0 .488.19.878.57 1.17.397.277.934.415 1.611.415zM57 3.951l-6.023 13.927c-.611 1.512-1.371 2.577-2.28 3.195-.892.618-1.974.927-3.247.927-.694 0-1.38-.106-2.057-.317-.677-.212-1.23-.504-1.66-.878l1.412-2.707a3.37 3.37 0 002.181.829c.53 0 .959-.13 1.29-.39.33-.244.627-.659.892-1.244l.05-.122-5.776-13.22h3.99l3.743 8.903 3.767-8.903H57z" fill="#141517"/><path d="M57.017 3.95l-6.022 13.927c-.612 1.512-1.372 2.577-2.28 3.195-.893.618-1.975.927-3.247.927-.694 0-1.38-.106-2.057-.317-.678-.211-1.231-.504-1.661-.878l1.413-2.707a3.368 3.368 0 002.18.829c.53 0 .96-.13 1.29-.39.33-.244.627-.659.892-1.244l.05-.122 1.957-4.317L53.3 3.95h3.717z" fill="#FE7865"/></symbol><symbol id="icon-mail"><path d="M24.227 0H1.773C.768 0 0 .765 0 1.765v16.47C0 19.235.768 20 1.773 20h22.454C25.232 20 26 19.235 26 18.235V1.765C26 .765 25.232 0 24.227 0zm0 17l-4.668-4.647a.86.86 0 00-1.24 0 .85.85 0 000 1.235l4.667 4.647H3.014l4.668-4.647a.85.85 0 000-1.235.86.86 0 00-1.241 0L1.773 17V5.706l10.636 8a.955.955 0 00.532.176.955.955 0 00.532-.176l10.754-8V17zm0-15.235V3.47l-11.286 8.352L1.773 3.471V1.765h22.454z" fill="#D7D9DF"/></symbol><symbol id="icon-phone"><path d="M7.396 8.624c-.084-1.198.182-2.378.885-3.327.61-.86 1.404-1.33 2.362-1.605.806-.24 1.334.054 1.567.95.332 1.34.806 2.68.978 4.092.055.62-.347 1.5-.782 1.952-1.09 1.073-.863 1.854-.036 3.478.257.524.664 1.43 1.459 2.628.827 1.207 1.265 1.855 2.328 1.305 1.18-.594 2.041-.212 2.932.747.604.693 1.268 1.288 1.872 1.98.873 1.03.834 1.74.151 2.467-1.229 1.34-3.258 1.783-4.768.886-.833-.489-1.664-1.128-2.325-1.874-2.914-3.32-5.016-7.182-6.281-11.54a10.989 10.989 0 01-.342-2.139z" stroke="#141517" stroke-width="2" stroke-miterlimit="10"/></symbol></svg>
